X: 26550
T: Micho Russell's
R: reel
M: 4/4
K: Gmajor
|:B2Ac BG3|BGdG DGGA|B2Ac BG3|dBAG DGGA:|
|:G2 (3Bcd gagf|d2cA dBcA|G2 (3Bcd g2ag|fdcA BG G2:|

